assets/logos/airbnb-logo.svg

<svg width="104" height="32" viewBox="0 0 104 32" fill="none" xmlns="http://www.w3.org/2000/svg">
<g clip-path="url(#clip0)">
<path d="M30.0261 22.6792C29.8645 22.2892 29.7131 21.8792 29.5515 21.5292L28.8042 19.8592L28.7739 19.8292C26.5524 15.0292 24.1793 10.1492 21.6649 5.34921L21.5639 5.14921C21.3115 4.67921 21.059 4.15921 20.7965 3.67921C20.4734 3.10921 20.1603 2.49921 19.6453 1.91921C19.1433 1.31234 18.5115 0.8234 17.7956 0.487667C17.0796 0.151934 16.2973 -0.0222168 15.5051 -0.0222168C14.7129 -0.0222168 13.9306 0.151934 13.2147 0.487667C12.4987 0.8234 11.8669 1.31234 11.3649 1.91921C10.8903 2.49921 10.5369 3.10921 10.2137 3.67921C9.96129 4.19921 9.70884 4.70921 9.44629 5.17921L9.34531 5.37921C6.87129 10.1792 4.45786 15.0592 2.23629 19.8592L2.1757 19.9192C1.95355 20.4392 1.691 20.9792 1.43855 21.5592C1.27698 21.9092 1.11541 22.2892 0.953841 22.7092C0.517639 23.809 0.378346 25.0024 0.54969 26.1717C0.721034 27.341 1.1971 28.446 1.93097 29.3776C2.66484 30.3093 3.63119 31.0355 4.73477 31.4847C5.83836 31.9338 7.04109 32.0905 8.22443 31.9392C9.35891 31.7913 10.4513 31.4171 11.4356 30.8392C12.7484 30.1092 14.0106 29.0492 15.4243 27.5192C16.8381 29.0492 18.1306 30.1092 19.4131 30.8492C20.6463 31.5661 22.0429 31.9617 23.4725 31.9992C25.1279 32.006 26.7299 31.4195 27.9827 30.3479C29.2356 29.2764 30.0546 27.7921 30.2886 26.1692C30.5591 25.003 30.4676 23.7831 30.0261 22.6692V22.6792ZM15.5253 24.3392C13.7884 22.1392 12.6575 20.1192 12.2737 18.3892C12.1148 17.7481 12.0805 17.083 12.1728 16.4292C12.2434 15.9192 12.4353 15.4692 12.6979 15.0892C13.3037 14.2192 14.364 13.6792 15.5253 13.6792C16.0768 13.6625 16.6238 13.7817 17.1173 14.0261C17.6108 14.2704 18.0353 14.6323 18.3528 15.0792C18.6153 15.4792 18.8072 15.9192 18.8678 16.4292C18.9687 17.0092 18.9284 17.6792 18.7668 18.3892C18.3831 20.0892 17.2521 22.1292 15.5253 24.3392ZM28.3902 25.8192C28.2755 26.6432 27.9447 27.423 27.4309 28.0809C26.9171 28.7389 26.2382 29.252 25.4618 29.5692C24.6943 29.8892 23.8461 29.9792 23.0181 29.8892C22.2102 29.7892 21.4024 29.5292 20.5743 29.0492C19.1995 28.2077 17.9632 27.1622 16.9087 25.9492C19.0293 23.3492 20.3118 20.9792 20.7965 18.8692C21.0287 17.8692 21.059 16.9692 20.9581 16.1392C20.832 15.3525 20.5357 14.602 20.0896 13.9392C19.5803 13.2205 18.9004 12.6367 18.1098 12.2391C17.3192 11.8415 16.4421 11.6424 15.5556 11.6592C13.6875 11.6592 12.0213 12.5192 11.0115 13.9292C10.5569 14.5904 10.2631 15.3468 10.1532 16.1392C10.0219 16.9792 10.0522 17.9092 10.3147 18.8692C10.7994 20.9792 12.1122 23.3792 14.2025 25.9692C13.1659 27.2054 11.9267 28.2601 10.5369 29.0892C9.69874 29.5692 8.901 29.8192 8.09315 29.9192C6.83684 30.0786 5.56779 29.7404 4.56183 28.9783C3.55588 28.2162 2.89433 27.0917 2.721 25.8492C2.62002 25.0492 2.6907 24.2492 3.01384 23.3492C3.11482 23.0292 3.26629 22.7092 3.42786 22.3292C3.65002 21.8092 3.91257 21.2692 4.16502 20.7292L4.20541 20.6592C6.38659 15.8892 8.76972 11.0192 11.2437 6.24921L11.3447 6.04921C11.5972 5.56921 11.8496 5.05921 12.1122 4.57921C12.3747 4.06921 12.6575 3.57921 13.021 3.17921C13.3357 2.80723 13.7289 2.50808 14.1729 2.30283C14.6169 2.09757 15.1009 1.9912 15.5909 1.9912C16.081 1.9912 16.565 2.09757 17.009 2.30283C17.453 2.50808 17.8462 2.80723 18.1609 3.17921C18.5143 3.57921 18.8072 4.06921 19.0697 4.57921C19.3222 5.05921 19.5746 5.57921 19.8372 6.04921L19.9382 6.24921C22.4021 11.0192 24.7852 15.8892 27.0068 20.6592L27.0371 20.6892C27.2996 21.2092 27.5218 21.7892 27.7742 22.2892C27.9358 22.6792 28.0974 22.9892 28.1984 23.3192C28.3902 24.2192 28.4912 25.0192 28.3902 25.8192ZM42.4467 24.1192C41.6858 24.1302 40.9321 23.9715 40.2416 23.6547C39.5511 23.3379 38.9415 22.8712 38.458 22.2892C37.3715 21.0492 36.7948 19.4503 36.8423 17.8092C36.8256 16.1324 37.4209 14.5061 38.5185 13.2292C39.0263 12.6398 39.6583 12.1678 40.3701 11.8465C41.082 11.5251 41.8563 11.3622 42.6385 11.3692C43.3746 11.3493 44.1037 11.515 44.7573 11.8509C45.4109 12.1868 45.9675 12.6817 46.3748 13.2892L46.4758 11.7192H49.4244V23.7992H46.4657L46.3647 22.0392C45.9448 22.6879 45.3644 23.2195 44.6787 23.5835C43.993 23.9476 43.2246 24.132 42.4467 24.1192ZM43.2141 21.2392C43.7998 21.2392 44.3148 21.0792 44.7995 20.7892C45.2438 20.4692 45.6074 20.0492 45.8901 19.5392C46.1426 19.0292 46.2738 18.4192 46.2738 17.7392C46.3132 17.1486 46.1971 16.558 45.9369 16.0251C45.6767 15.4923 45.2813 15.0354 44.7894 14.6992C44.3168 14.4076 43.771 14.253 43.2141 14.253C42.6572 14.253 42.1115 14.4076 41.6388 14.6992C41.1945 15.0192 40.831 15.4392 40.5483 15.9492C40.2812 16.5117 40.1498 17.1279 40.1645 17.7492C40.1252 18.3398 40.2412 18.9304 40.5014 19.4633C40.7616 19.9962 41.157 20.453 41.6489 20.7892C42.1235 21.0792 42.6385 21.2392 43.2141 21.2392ZM54.4734 8.45921C54.4734 8.80921 54.4129 9.12921 54.2513 9.38921C54.0897 9.63921 53.8676 9.86921 53.5747 10.0292C53.2819 10.1892 52.9688 10.2492 52.6457 10.2492C52.3226 10.2492 51.9994 10.1892 51.7066 10.0292C51.4296 9.87652 51.1967 9.6562 51.03 9.38921C50.8736 9.10434 50.7969 8.78327 50.8079 8.45921C50.8079 8.09921 50.8785 7.77921 51.03 7.52921C51.1916 7.22921 51.4238 7.04921 51.7066 6.88921C51.9994 6.72921 52.3125 6.65921 52.6457 6.65921C52.9671 6.65188 53.285 6.72727 53.5682 6.87801C53.8514 7.02875 54.0902 7.24968 54.2614 7.51921C54.4083 7.81076 54.4811 8.13345 54.4734 8.45921ZM51.0401 23.7592V11.6992H54.2513V23.7792H51.03L51.0401 23.7592ZM62.8346 14.8592V14.8992C62.6832 14.8292 62.4812 14.7992 62.3297 14.7692C62.1278 14.7292 61.9662 14.7292 61.7743 14.7292C60.8756 14.7292 60.199 14.9892 59.7547 15.5292C59.27 16.0792 59.0479 16.8492 59.0479 17.8392V23.7692H55.8266V11.6892H58.7853L58.8863 13.5192C59.2094 12.8792 59.5932 12.3992 60.1384 12.0392C60.6808 11.6894 61.3194 11.5147 61.9662 11.5392C62.1984 11.5392 62.4206 11.5592 62.6125 11.5992C62.7134 11.6292 62.774 11.6292 62.8346 11.6592V14.8592ZM64.1272 23.7592V6.73921H67.3384V13.2392C67.7928 12.6592 68.3078 12.2092 68.954 11.8592C69.9772 11.3624 71.1395 11.2215 72.2534 11.4592C73.3673 11.6969 74.3679 12.2993 75.0936 13.1692C76.1825 14.4118 76.7593 16.0147 76.7093 17.6592C76.726 19.336 76.1307 20.9624 75.0331 22.2392C74.5253 22.8286 73.8933 23.3006 73.1815 23.6219C72.4696 23.9433 71.6953 24.1062 70.9131 24.0992C70.177 24.1192 69.4479 23.9534 68.7943 23.6175C68.1407 23.2817 67.5841 22.7867 67.1768 22.1792L67.0758 23.7492L64.1272 23.7792V23.7592ZM70.3375 21.2392C70.9131 21.2392 71.4281 21.0792 71.9128 20.7892C72.3571 20.4692 72.7206 20.0492 73.0034 19.5392C73.2659 19.0292 73.3871 18.4192 73.3871 17.7392C73.3871 17.0692 73.2659 16.4592 73.0034 15.9492C72.7382 15.4574 72.3656 15.0304 71.9128 14.6992C71.4401 14.4076 70.8944 14.253 70.3375 14.253C69.7806 14.253 69.2348 14.4076 68.7622 14.6992C68.3078 15.0192 67.9543 15.4392 67.6615 15.9492C67.3945 16.5117 67.2631 17.1279 67.2778 17.7492C67.2384 18.3398 67.3545 18.9304 67.6147 19.4633C67.8749 19.9962 68.2703 20.453 68.7622 20.7892C69.2368 21.0792 69.7518 21.2392 70.3375 21.2392ZM77.9211 23.7692V11.6892H80.8798L80.9808 13.2592C81.3526 12.6574 81.88 12.1649 82.5085 11.8326C83.137 11.5003 83.8437 11.3403 84.5555 11.3692C85.3695 11.3553 86.1696 11.5793 86.8557 12.0133C87.5418 12.4473 88.0835 13.072 88.413 13.8092C88.7664 14.5692 88.9583 15.5092 88.9583 16.5592V23.7992H85.737V16.9792C85.737 16.1392 85.5451 15.4792 85.1614 14.9892C84.7777 14.5092 84.2526 14.2492 83.5861 14.2492C83.1014 14.2492 82.6773 14.3492 82.3036 14.5692C81.9502 14.7992 81.6574 15.0892 81.4352 15.4992C81.2106 15.9137 81.0992 16.379 81.1121 16.8492V23.7692H77.9211ZM90.5638 23.7692V6.72921H93.7851V13.2292C94.2214 12.646 94.789 12.1715 95.4429 11.8434C96.0967 11.5153 96.8187 11.3427 97.5517 11.3392C98.3126 11.3282 99.0663 11.487 99.7568 11.8038C100.447 12.1206 101.057 12.5872 101.54 13.1692C102.622 14.4117 103.194 16.0098 103.146 17.6492C103.164 19.3262 102.568 20.9528 101.47 22.2292C100.962 22.8186 100.33 23.2906 99.6181 23.6119C98.9063 23.9333 98.132 24.0962 97.3497 24.0892C96.6136 24.1092 95.8845 23.9434 95.2309 23.6075C94.5773 23.2717 94.0207 22.7767 93.6134 22.1692L93.5226 23.7392L90.5638 23.7692ZM96.8044 21.2392C97.3901 21.2392 97.9051 21.0792 98.3797 20.7892C98.8341 20.4692 99.1876 20.0492 99.4804 19.5392C99.7329 19.0292 99.8641 18.4192 99.8641 17.7392C99.9035 17.1486 99.7874 16.558 99.5272 16.0251C99.267 15.4923 98.8716 15.0354 98.3797 14.6992C97.9071 14.4076 97.3613 14.253 96.8044 14.253C96.2475 14.253 95.7018 14.4076 95.2291 14.6992C94.7848 15.0192 94.4213 15.4392 94.1386 15.9492C93.8567 16.5066 93.7245 17.1265 93.7548 17.7492C93.7155 18.3398 93.8315 18.9304 94.0917 19.4633C94.3519 19.9962 94.7473 20.453 95.2392 20.7892C95.7138 21.0792 96.1986 21.2392 96.8044 21.2392Z" fill="#FF385C"/>
</g>
<defs>
<clipPath id="clip0">
<rect width="104" height="32" fill="white"/>
</clipPath>
</defs>
</svg>

<?xml version="1.0" encoding="UTF-8" standalone="no"?>
<svg
   width="102.25043"
   height="35.961658"
   viewBox="0 0 102.25043 35.961658"
   fill="none"
   version="1.1"
   id="svg8"
   sodipodi:docname="airbnb-logo.svg"
   inkscape:version="1.4.2 (ebf0e940d0, 2025-05-08)"
   xmlns:inkscape="http://www.inkscape.org/namespaces/inkscape"
   xmlns:sodipodi="http://sodipodi.sourceforge.net/DTD/sodipodi-0.dtd"
   xmlns="http://www.w3.org/2000/svg"
   xmlns:svg="http://www.w3.org/2000/svg">
  <defs
     id="defs8">
    <clipPath
       id="clip0">
      <rect
         width="123"
         height="26"
         fill="#ffffff"
         id="rect5"
         x="0"
         y="0" />
    </clipPath>
    <clipPath
       id="clip0-3">
      <rect
         width="104"
         height="32"
         fill="#ffffff"
         id="rect1-5"
         x="0"
         y="0" />
    </clipPath>
  </defs>
  <sodipodi:namedview
     id="namedview8"
     pagecolor="#ffffff"
     bordercolor="#000000"
     borderopacity="0.25"
     inkscape:showpageshadow="2"
     inkscape:pageopacity="0.0"
     inkscape:pagecheckerboard="0"
     inkscape:deskcolor="#d1d1d1"
     inkscape:zoom="8"
     inkscape:cx="44.25"
     inkscape:cy="15.0625"
     inkscape:window-width="1920"
     inkscape:window-height="1008"
     inkscape:window-x="0"
     inkscape:window-y="0"
     inkscape:window-maximized="1"
     inkscape:current-layer="svg8"
     showguides="true">
    <sodipodi:guide
       position="-5.1373797,12.263423"
       orientation="0,-1"
       id="guide9"
       inkscape:locked="false" />
    <sodipodi:guide
       position="51.15729,17.865567"
       orientation="1,0"
       id="guide10"
       inkscape:locked="false" />
    <sodipodi:guide
       position="-5.6759761,28.434257"
       orientation="0,-1"
       id="guide11"
       inkscape:locked="false" />
  </sodipodi:namedview>
  <rect
     style="opacity:0.01;fill:#ffffff;stroke-width:0.00166738"
     id="rect1"
     width="0.11226199"
     height="0.091062769"
     x="102.14031"
     y="0" />
  <rect
     style="opacity:0.01;fill:#ffffff;stroke-width:0.00127849"
     id="rect2"
     width="0.082999997"
     height="0.072412901"
     x="0"
     y="35.889248" />
  <g
     clip-path="url(#clip0-3)"
     id="g2"
     transform="matrix(0.98671842,0,0,0.98671842,-0.04538359,0.27437112)">
    <path
       d="m 30.0261,22.6792 c -0.1616,-0.39 -0.313,-0.8 -0.4746,-1.15 l -0.7473,-1.67 -0.0303,-0.03 c -2.2215,-4.8 -4.5946,-9.68 -7.109,-14.47999 l -0.101,-0.2 c -0.2524,-0.47 -0.5049,-0.99 -0.7674,-1.47 -0.3231,-0.57 -0.6362,-1.18 -1.1512,-1.76 -0.502,-0.60687 -1.1338,-1.09581 -1.8497,-1.431543 -0.716,-0.335733 -1.4983,-0.5098838 -2.2905,-0.5098838 -0.7922,0 -1.5745,0.1741508 -2.2904,0.5098838 -0.716,0.335733 -1.3478,0.824673 -1.8498,1.431543 -0.4746,0.58 -0.828,1.19 -1.1512,1.76 -0.25241,0.52 -0.50486,1.03 -0.76741,1.5 l -0.10098,0.2 C 6.87129,10.1792 4.45786,15.0592 2.23629,19.8592 l -0.06059,0.06 c -0.22215,0.52 -0.4847,1.06 -0.73715,1.64 -0.16157,0.35 -0.32314,0.73 -0.484709,1.15 -0.436202,1.0998 -0.575495,2.2932 -0.404151,3.4625 0.171344,1.1693 0.64741,2.2743 1.38128,3.2059 0.73387,0.9317 1.70022,1.6579 2.8038,2.1071 1.10359,0.4491 2.30632,0.6058 3.48966,0.4545 1.13448,-0.1479 2.22687,-0.5221 3.21117,-1.1 1.3128,-0.73 2.575,-1.79 3.9887,-3.32 1.4138,1.53 2.7063,2.59 3.9888,3.33 1.2332,0.7169 2.6298,1.1125 4.0594,1.15 1.6554,0.0068 3.2574,-0.5797 4.5102,-1.6513 1.2529,-1.0715 2.0719,-2.5558 2.3059,-4.1787 0.2705,-1.1662 0.179,-2.3861 -0.2625,-3.5 z m -14.5008,1.66 c -1.7369,-2.2 -2.8678,-4.22 -3.2516,-5.95 -0.1589,-0.6411 -0.1932,-1.3062 -0.1009,-1.96 0.0706,-0.51 0.2625,-0.96 0.5251,-1.34 0.6058,-0.87 1.6661,-1.41 2.8274,-1.41 0.5515,-0.0167 1.0985,0.1025 1.592,0.3469 0.4935,0.2443 0.918,0.6062 1.2355,1.0531 0.2625,0.4 0.4544,0.84 0.515,1.35 0.1009,0.58 0.0606,1.25 -0.101,1.96 -0.3837,1.7 -1.5147,3.74 -3.2415,5.95 z m 12.8649,1.48 c -0.1147,0.824 -0.4455,1.6038 -0.9593,2.2617 -0.5138,0.658 -1.1927,1.1711 -1.9691,1.4883 -0.7675,0.32 -1.6157,0.41 -2.4437,0.32 -0.8079,-0.1 -1.6157,-0.36 -2.4438,-0.84 -1.3748,-0.8415 -2.6111,-1.887 -3.6656,-3.1 2.1206,-2.6 3.4031,-4.97 3.8878,-7.08 0.2322,-1 0.2625,-1.9 0.1616,-2.73 -0.1261,-0.7867 -0.4224,-1.5372 -0.8685,-2.2 -0.5093,-0.7187 -1.1892,-1.3025 -1.9798,-1.7001 -0.7906,-0.3976 -1.6677,-0.5967 -2.5542,-0.5799 -1.8681,0 -3.5343,0.86 -4.5441,2.27 -0.4546,0.6612 -0.7484,1.4176 -0.8583,2.21 -0.1313,0.84 -0.101,1.77 0.1615,2.73 0.4847,2.11 1.7975,4.51 3.8878,7.1 -1.0366,1.2362 -2.2758,2.2909 -3.6656,3.12 -0.83816,0.48 -1.6359,0.73 -2.44375,0.83 C 6.83684,30.0786 5.56779,29.7404 4.56183,28.9783 3.55588,28.2162 2.89433,27.0917 2.721,25.8492 c -0.10098,-0.8 -0.0303,-1.6 0.29284,-2.5 0.10098,-0.32 0.25245,-0.64 0.41402,-1.02 0.22216,-0.52 0.48471,-1.06 0.73716,-1.6 l 0.04039,-0.07 c 2.18118,-4.77 4.56431,-9.64 7.03829,-14.40999 l 0.101,-0.2 c 0.2525,-0.48 0.5049,-0.99 0.7675,-1.47 0.2625,-0.51 0.5453,-1 0.9088,-1.4 0.3147,-0.37198 0.7079,-0.67113 1.1519,-0.87638 0.444,-0.20526 0.928,-0.31163 1.418,-0.31163 0.4901,0 0.9741,0.10637 1.4181,0.31163 0.444,0.20525 0.8372,0.5044 1.1519,0.87638 0.3534,0.4 0.6463,0.89 0.9088,1.4 0.2525,0.48 0.5049,1 0.7675,1.47 l 0.101,0.2 c 2.4639,4.76999 4.847,9.63999 7.0686,14.40999 l 0.0303,0.03 c 0.2625,0.52 0.4847,1.1 0.7371,1.6 0.1616,0.39 0.3232,0.7 0.4242,1.03 0.1918,0.9 0.2928,1.7 0.1918,2.5 z m 14.0565,-1.7 c -0.7609,0.011 -1.5146,-0.1477 -2.2051,-0.4645 -0.6905,-0.3168 -1.3001,-0.7835 -1.7836,-1.3655 -1.0865,-1.24 -1.6632,-2.8389 -1.6157,-4.48 -0.0167,-1.6768 0.5786,-3.3031 1.6762,-4.58 0.5078,-0.5894 1.1398,-1.0614 1.8516,-1.3827 0.7119,-0.3214 1.4862,-0.4843 2.2684,-0.4773 0.7361,-0.0199 1.4652,0.1458 2.1188,0.4817 0.6536,0.3359 1.2102,0.8308 1.6175,1.4383 l 0.101,-1.57 h 2.9486 v 12.08 h -2.9587 l -0.101,-1.76 c -0.4199,0.6487 -1.0003,1.1803 -1.686,1.5443 -0.6857,0.3641 -1.4541,0.5485 -2.232,0.5357 z m 0.7674,-2.88 c 0.5857,0 1.1007,-0.16 1.5854,-0.45 0.4443,-0.32 0.8079,-0.74 1.0906,-1.25 0.2525,-0.51 0.3837,-1.12 0.3837,-1.8 0.0394,-0.5906 -0.0767,-1.1812 -0.3369,-1.7141 -0.2602,-0.5328 -0.6556,-0.9897 -1.1475,-1.3259 -0.4726,-0.2916 -1.0184,-0.4462 -1.5753,-0.4462 -0.5569,0 -1.1026,0.1546 -1.5753,0.4462 -0.4443,0.32 -0.8078,0.74 -1.0905,1.25 -0.2671,0.5625 -0.3985,1.1787 -0.3838,1.8 -0.0393,0.5906 0.0767,1.1812 0.3369,1.7141 0.2602,0.5329 0.6556,0.9897 1.1475,1.3259 0.4746,0.29 0.9896,0.45 1.5652,0.45 z M 54.4734,8.45921 c 0,0.35 -0.0605,0.67 -0.2221,0.93 -0.1616,0.25 -0.3837,0.48 -0.6766,0.63999 -0.2928,0.16 -0.6059,0.22 -0.929,0.22 -0.3231,0 -0.6463,-0.06 -0.9391,-0.22 -0.277,-0.15268 -0.5099,-0.373 -0.6766,-0.63999 -0.1564,-0.28487 -0.2331,-0.60594 -0.2221,-0.93 0,-0.36 0.0706,-0.68 0.2221,-0.93 0.1616,-0.3 0.3938,-0.48 0.6766,-0.64 0.2928,-0.16 0.6059,-0.23 0.9391,-0.23 0.3214,-0.00733 0.6393,0.06806 0.9225,0.2188 0.2832,0.15074 0.522,0.37167 0.6932,0.6412 0.1469,0.29155 0.2197,0.61424 0.212,0.94 z M 51.0401,23.7592 v -12.06 h 3.2112 v 12.08 H 51.03 Z m 11.7945,-8.9 v 0.04 c -0.1514,-0.07 -0.3534,-0.1 -0.5049,-0.13 -0.2019,-0.04 -0.3635,-0.04 -0.5554,-0.04 -0.8987,0 -1.5753,0.26 -2.0196,0.8 -0.4847,0.55 -0.7068,1.32 -0.7068,2.31 v 5.93 h -3.2213 v -12.08 h 2.9587 l 0.101,1.83 c 0.3231,-0.64 0.7069,-1.12 1.2521,-1.48 0.5424,-0.3498 1.181,-0.5245 1.8278,-0.5 0.2322,0 0.4544,0.02 0.6463,0.06 0.1009,0.03 0.1615,0.03 0.2221,0.06 z m 1.2926,8.9 V 6.73921 h 3.2112 v 6.49999 c 0.4544,-0.58 0.9694,-1.03 1.6156,-1.38 1.0232,-0.4968 2.1855,-0.6377 3.2994,-0.4 1.1139,0.2377 2.1145,0.8401 2.8402,1.71 1.0889,1.2426 1.6657,2.8455 1.6157,4.49 0.0167,1.6768 -0.5786,3.3032 -1.6762,4.58 -0.5078,0.5894 -1.1398,1.0614 -1.8516,1.3827 -0.7119,0.3214 -1.4862,0.4843 -2.2684,0.4773 -0.7361,0.02 -1.4652,-0.1458 -2.1188,-0.4817 -0.6536,-0.3358 -1.2102,-0.8308 -1.6175,-1.4383 l -0.101,1.57 -2.9486,0.03 z m 6.2103,-2.52 c 0.5756,0 1.0906,-0.16 1.5753,-0.45 0.4443,-0.32 0.8078,-0.74 1.0906,-1.25 0.2625,-0.51 0.3837,-1.12 0.3837,-1.8 0,-0.67 -0.1212,-1.28 -0.3837,-1.79 -0.2652,-0.4918 -0.6378,-0.9188 -1.0906,-1.25 -0.4727,-0.2916 -1.0184,-0.4462 -1.5753,-0.4462 -0.5569,0 -1.1027,0.1546 -1.5753,0.4462 -0.4544,0.32 -0.8079,0.74 -1.1007,1.25 -0.267,0.5625 -0.3984,1.1787 -0.3837,1.8 -0.0394,0.5906 0.0767,1.1812 0.3369,1.7141 0.2602,0.5329 0.6556,0.9897 1.1475,1.3259 0.4746,0.29 0.9896,0.45 1.5753,0.45 z m 7.5836,2.53 v -12.08 h 2.9587 l 0.101,1.57 c 0.3718,-0.6018 0.8992,-1.0943 1.5277,-1.4266 0.6285,-0.3323 1.3352,-0.4923 2.047,-0.4634 0.814,-0.0139 1.6141,0.2101 2.3002,0.6441 0.6861,0.434 1.2278,1.0587 1.5573,1.7959 0.3534,0.76 0.5453,1.7 0.5453,2.75 v 7.24 H 85.737 v -6.82 c 0,-0.84 -0.1919,-1.5 -0.5756,-1.99 -0.3837,-0.48 -0.9088,-0.74 -1.5753,-0.74 -0.4847,0 -0.9088,0.1 -1.2825,0.32 -0.3534,0.23 -0.6462,0.52 -0.8684,0.93 -0.2246,0.4145 -0.336,0.8798 -0.3231,1.35 v 6.92 z m 12.6427,0 V 6.72921 h 3.2213 v 6.49999 c 0.4363,-0.5832 1.0039,-1.0577 1.6578,-1.3858 0.6538,-0.3281 1.3758,-0.5007 2.1088,-0.5042 0.7609,-0.011 1.5146,0.1478 2.2051,0.4646 0.6902,0.3168 1.3002,0.7834 1.7832,1.3654 1.082,1.2425 1.654,2.8406 1.606,4.48 0.018,1.677 -0.578,3.3036 -1.676,4.58 -0.508,0.5894 -1.14,1.0614 -1.8519,1.3827 -0.7118,0.3214 -1.4861,0.4843 -2.2684,0.4773 -0.7361,0.02 -1.4652,-0.1458 -2.1188,-0.4817 -0.6536,-0.3358 -1.2102,-0.8308 -1.6175,-1.4383 l -0.0908,1.57 z m 6.2406,-2.53 c 0.5857,0 1.1007,-0.16 1.5753,-0.45 0.4544,-0.32 0.8079,-0.74 1.1007,-1.25 0.2525,-0.51 0.3837,-1.12 0.3837,-1.8 0.0394,-0.5906 -0.0767,-1.1812 -0.3369,-1.7141 -0.2602,-0.5328 -0.6556,-0.9897 -1.1475,-1.3259 -0.4726,-0.2916 -1.0184,-0.4462 -1.5753,-0.4462 -0.5569,0 -1.1026,0.1546 -1.5753,0.4462 -0.4443,0.32 -0.8078,0.74 -1.0905,1.25 -0.2819,0.5574 -0.4141,1.1773 -0.3838,1.8 -0.0393,0.5906 0.0767,1.1812 0.3369,1.7141 0.2602,0.5329 0.6556,0.9897 1.1475,1.3259 0.4746,0.29 0.9594,0.45 1.5652,0.45 z"
       fill="#ff385c"
       id="path1" />
  </g>
</svg>
